X:13498
T:Poor Girl Waltz
C:Andy De Jarlis
M:3/4
L:1/8
K:C
g^f g|a6|g4 g^f|a3/2g/ e3/2c/ A3/2c/|G4 -GE|!
G3/2c/ e3/2g/ a3/2b/|a4 g2|B6 -|B3 g ^fg|!
a6|g6|a3/2g/ f3/2d/ B3/2A/|G6|!
d6|g4 a2|e6 -|e3 g ^fg|!
a6|g4 g^f|a3/2g/ e3/2c/ A3/2c/|G4 -GE|!
G3/2c/ e3/2g/ a3/2b/|a4 e2|g2 f2 d2|A6|!
d6|c4 A2|G3/2c/ e3/2g/ a3/2b/|a2 g3 e|!
d6|e4 G2|c6 -|c3:|!
|:E2 F|G6|G2 ^F3 A|G6 -|G2 E2 F2|!
G2 A2 B2|c2 a3 g|B6 -|B2 D2 E2|!
F6 -|F2 E3 G|F6 -|F2 D2 E2|!
F2 G3 A|B2 d3 c|E6 -|E2 E2 F2|!
G6|G2 ^F3 A|G6 -|G2 E2 F2|!
G2 A2 B2|c2 a3 g|f6 -|f4 de|!
f2 d3 d|d4 cd|e2 c3 c|c4 Bc|!
d2 B3 A|G2 e3 d|c6 -|c3:|!
